(Exported by FreeCAD)
(Post Processor: grbl_post)
(Output Time:2025-10-10 12:58:12.987108)
(Begin preamble)
G17 G90
G21
(Begin operation: Fixture)
(Path: Fixture)
G54
(Finish operation: Fixture)
(Begin operation: TC: Default Tool)
(Path: TC: Default Tool)
(TC: Default Tool)
(Begin toolchange)
( M6 T1 )
M3 S6000
(Finish operation: TC: Default Tool)
(Begin operation: Engrave)
(Path: Engrave)
(Engrave)
G0 Z6.000
G0 Z6.000
G0 X12.592 Y10.000
G0 Z4.000
G1 X12.592 Y10.000 Z-0.200 F50.000
G1 X10.000 Y10.000 Z-0.200 F800.000
G1 X13.703 Y20.000 Z-0.200 F800.000
G1 X16.777 Y20.000 Z-0.200 F800.000
G1 X20.480 Y10.000 Z-0.200 F800.000
G1 X17.888 Y10.000 Z-0.200 F800.000
G1 X17.259 Y11.829 Z-0.200 F800.000
G1 X13.228 Y11.829 Z-0.200 F800.000
G1 X12.592 Y10.000 Z-0.200 F800.000
G1 X12.592 Y10.000 Z-0.400 F50.000
G1 X10.000 Y10.000 Z-0.400 F800.000
G1 X13.703 Y20.000 Z-0.400 F800.000
G1 X16.777 Y20.000 Z-0.400 F800.000
G1 X20.480 Y10.000 Z-0.400 F800.000
G1 X17.888 Y10.000 Z-0.400 F800.000
G1 X17.259 Y11.829 Z-0.400 F800.000
G1 X13.228 Y11.829 Z-0.400 F800.000
G1 X12.592 Y10.000 Z-0.400 F800.000
G1 X12.592 Y10.000 Z-0.600 F50.000
G1 X10.000 Y10.000 Z-0.600 F800.000
G1 X13.703 Y20.000 Z-0.600 F800.000
G1 X16.777 Y20.000 Z-0.600 F800.000
G1 X20.480 Y10.000 Z-0.600 F800.000
G1 X17.888 Y10.000 Z-0.600 F800.000
G1 X17.259 Y11.829 Z-0.600 F800.000
G1 X13.228 Y11.829 Z-0.600 F800.000
G1 X12.592 Y10.000 Z-0.600 F800.000
G1 X12.592 Y10.000 Z-0.800 F50.000
G1 X10.000 Y10.000 Z-0.800 F800.000
G1 X13.703 Y20.000 Z-0.800 F800.000
G1 X16.777 Y20.000 Z-0.800 F800.000
G1 X20.480 Y10.000 Z-0.800 F800.000
G1 X17.888 Y10.000 Z-0.800 F800.000
G1 X17.259 Y11.829 Z-0.800 F800.000
G1 X13.228 Y11.829 Z-0.800 F800.000
G1 X12.592 Y10.000 Z-0.800 F800.000
G1 X12.592 Y10.000 Z-1.000 F50.000
G1 X10.000 Y10.000 Z-1.000 F800.000
G1 X13.703 Y20.000 Z-1.000 F800.000
G1 X16.777 Y20.000 Z-1.000 F800.000
G1 X20.480 Y10.000 Z-1.000 F800.000
G1 X17.888 Y10.000 Z-1.000 F800.000
G1 X17.259 Y11.829 Z-1.000 F800.000
G1 X13.228 Y11.829 Z-1.000 F800.000
G1 X12.592 Y10.000 Z-1.000 F800.000
G0 Z6.000
G0 Z6.000
G0 X15.243 Y17.659
G0 Z4.000
G1 X15.243 Y17.659 Z-0.200 F50.000
G1 X13.871 Y13.686 Z-0.200 F800.000
G1 X16.609 Y13.686 Z-0.200 F800.000
G1 X15.243 Y17.659 Z-0.200 F800.000
G1 X15.243 Y17.659 Z-0.400 F50.000
G1 X13.871 Y13.686 Z-0.400 F800.000
G1 X16.609 Y13.686 Z-0.400 F800.000
G1 X15.243 Y17.659 Z-0.400 F800.000
G1 X15.243 Y17.659 Z-0.600 F50.000
G1 X13.871 Y13.686 Z-0.600 F800.000
G1 X16.609 Y13.686 Z-0.600 F800.000
G1 X15.243 Y17.659 Z-0.600 F800.000
G1 X15.243 Y17.659 Z-0.800 F50.000
G1 X13.871 Y13.686 Z-0.800 F800.000
G1 X16.609 Y13.686 Z-0.800 F800.000
G1 X15.243 Y17.659 Z-0.800 F800.000
G1 X15.243 Y17.659 Z-1.000 F50.000
G1 X13.871 Y13.686 Z-1.000 F800.000
G1 X16.609 Y13.686 Z-1.000 F800.000
G1 X15.243 Y17.659 Z-1.000 F800.000
G0 Z6.000
G0 Z6.000
G0 X26.814 Y10.000
G0 Z4.000
G1 X26.814 Y10.000 Z-0.200 F50.000
G1 X26.814 Y10.745 Z-0.200 F800.000
G1 X26.814 Y13.490 Z-0.200 F800.000
G1 X26.803 Y14.322 Z-0.200 F800.000
G1 X26.771 Y14.846 Z-0.200 F800.000
G1 X26.692 Y15.230 Z-0.200 F800.000
G1 X26.620 Y15.389 Z-0.200 F800.000
G1 X26.450 Y15.602 Z-0.200 F800.000
G1 X26.238 Y15.755 Z-0.200 F800.000
G1 X25.982 Y15.853 Z-0.200 F800.000
G1 X25.689 Y15.886 Z-0.200 F800.000
G1 X25.334 Y15.849 Z-0.200 F800.000
G1 X25.032 Y15.747 Z-0.200 F800.000
G1 X24.772 Y15.582 Z-0.200 F800.000
G1 X24.511 Y15.305 Z-0.200 F800.000
G1 X24.327 Y14.995 Z-0.200 F800.000
G1 X24.191 Y14.621 Z-0.200 F800.000
G1 X24.107 Y14.171 Z-0.200 F800.000
G1 X24.082 Y13.698 Z-0.200 F800.000
G1 X24.082 Y10.000 Z-0.200 F800.000
G1 X21.685 Y10.000 Z-0.200 F800.000
G1 X21.685 Y20.429 Z-0.200 F800.000
G1 X24.082 Y20.429 Z-0.200 F800.000
G1 X24.082 Y16.400 Z-0.200 F800.000
G1 X24.488 Y16.836 Z-0.200 F800.000
G1 X24.892 Y17.166 Z-0.200 F800.000
G1 X25.061 Y17.276 Z-0.200 F800.000
G1 X25.234 Y17.373 Z-0.200 F800.000
G1 X25.648 Y17.545 Z-0.200 F800.000
G1 X26.090 Y17.649 Z-0.200 F800.000
G1 X26.331 Y17.677 Z-0.200 F800.000
G1 X26.580 Y17.686 Z-0.200 F800.000
G1 X27.107 Y17.649 Z-0.200 F800.000
G1 X27.555 Y17.547 Z-0.200 F800.000
G1 X27.938 Y17.387 Z-0.200 F800.000
G1 X28.264 Y17.171 Z-0.200 F800.000
G1 X28.552 Y16.890 Z-0.200 F800.000
G1 X28.786 Y16.557 Z-0.200 F800.000
G1 X28.973 Y16.162 Z-0.200 F800.000
G1 X29.113 Y15.697 Z-0.200 F800.000
G1 X29.199 Y15.148 Z-0.200 F800.000
G1 X29.225 Y14.577 Z-0.200 F800.000
G1 X29.225 Y10.000 Z-0.200 F800.000
G1 X26.814 Y10.000 Z-0.200 F800.000
G1 X26.814 Y10.000 Z-0.400 F50.000
G1 X26.814 Y10.745 Z-0.400 F800.000
G1 X26.814 Y13.490 Z-0.400 F800.000
G1 X26.803 Y14.322 Z-0.400 F800.000
G1 X26.771 Y14.846 Z-0.400 F800.000
G1 X26.692 Y15.230 Z-0.400 F800.000
G1 X26.620 Y15.389 Z-0.400 F800.000
G1 X26.450 Y15.602 Z-0.400 F800.000
G1 X26.238 Y15.755 Z-0.400 F800.000
G1 X25.982 Y15.853 Z-0.400 F800.000
G1 X25.689 Y15.886 Z-0.400 F800.000
G1 X25.334 Y15.849 Z-0.400 F800.000
G1 X25.032 Y15.747 Z-0.400 F800.000
G1 X24.772 Y15.582 Z-0.400 F800.000
G1 X24.511 Y15.305 Z-0.400 F800.000
G1 X24.327 Y14.995 Z-0.400 F800.000
G1 X24.191 Y14.621 Z-0.400 F800.000
G1 X24.107 Y14.171 Z-0.400 F800.000
G1 X24.082 Y13.698 Z-0.400 F800.000
G1 X24.082 Y10.000 Z-0.400 F800.000
G1 X21.685 Y10.000 Z-0.400 F800.000
G1 X21.685 Y20.429 Z-0.400 F800.000
G1 X24.082 Y20.429 Z-0.400 F800.000
G1 X24.082 Y16.400 Z-0.400 F800.000
G1 X24.488 Y16.836 Z-0.400 F800.000
G1 X24.892 Y17.166 Z-0.400 F800.000
G1 X25.061 Y17.276 Z-0.400 F800.000
G1 X25.234 Y17.373 Z-0.400 F800.000
G1 X25.648 Y17.545 Z-0.400 F800.000
G1 X26.090 Y17.649 Z-0.400 F800.000
G1 X26.331 Y17.677 Z-0.400 F800.000
G1 X26.580 Y17.686 Z-0.400 F800.000
G1 X27.107 Y17.649 Z-0.400 F800.000
G1 X27.555 Y17.547 Z-0.400 F800.000
G1 X27.938 Y17.387 Z-0.400 F800.000
G1 X28.264 Y17.171 Z-0.400 F800.000
G1 X28.552 Y16.890 Z-0.400 F800.000
G1 X28.786 Y16.557 Z-0.400 F800.000
G1 X28.973 Y16.162 Z-0.400 F800.000
G1 X29.113 Y15.697 Z-0.400 F800.000
G1 X29.199 Y15.148 Z-0.400 F800.000
G1 X29.225 Y14.577 Z-0.400 F800.000
G1 X29.225 Y10.000 Z-0.400 F800.000
G1 X26.814 Y10.000 Z-0.400 F800.000
G1 X26.814 Y10.000 Z-0.600 F50.000
G1 X26.814 Y10.745 Z-0.600 F800.000
G1 X26.814 Y13.490 Z-0.600 F800.000
G1 X26.803 Y14.322 Z-0.600 F800.000
G1 X26.771 Y14.846 Z-0.600 F800.000
G1 X26.692 Y15.230 Z-0.600 F800.000
G1 X26.620 Y15.389 Z-0.600 F800.000
G1 X26.450 Y15.602 Z-0.600 F800.000
G1 X26.238 Y15.755 Z-0.600 F800.000
G1 X25.982 Y15.853 Z-0.600 F800.000
G1 X25.689 Y15.886 Z-0.600 F800.000
G1 X25.334 Y15.849 Z-0.600 F800.000
G1 X25.032 Y15.747 Z-0.600 F800.000
G1 X24.772 Y15.582 Z-0.600 F800.000
G1 X24.511 Y15.305 Z-0.600 F800.000
G1 X24.327 Y14.995 Z-0.600 F800.000
G1 X24.191 Y14.621 Z-0.600 F800.000
G1 X24.107 Y14.171 Z-0.600 F800.000
G1 X24.082 Y13.698 Z-0.600 F800.000
G1 X24.082 Y10.000 Z-0.600 F800.000
G1 X21.685 Y10.000 Z-0.600 F800.000
G1 X21.685 Y20.429 Z-0.600 F800.000
G1 X24.082 Y20.429 Z-0.600 F800.000
G1 X24.082 Y16.400 Z-0.600 F800.000
G1 X24.488 Y16.836 Z-0.600 F800.000
G1 X24.892 Y17.166 Z-0.600 F800.000
G1 X25.061 Y17.276 Z-0.600 F800.000
G1 X25.234 Y17.373 Z-0.600 F800.000
G1 X25.648 Y17.545 Z-0.600 F800.000
G1 X26.090 Y17.649 Z-0.600 F800.000
G1 X26.331 Y17.677 Z-0.600 F800.000
G1 X26.580 Y17.686 Z-0.600 F800.000
G1 X27.107 Y17.649 Z-0.600 F800.000
G1 X27.555 Y17.547 Z-0.600 F800.000
G1 X27.938 Y17.387 Z-0.600 F800.000
G1 X28.264 Y17.171 Z-0.600 F800.000
G1 X28.552 Y16.890 Z-0.600 F800.000
G1 X28.786 Y16.557 Z-0.600 F800.000
G1 X28.973 Y16.162 Z-0.600 F800.000
G1 X29.113 Y15.697 Z-0.600 F800.000
G1 X29.199 Y15.148 Z-0.600 F800.000
G1 X29.225 Y14.577 Z-0.600 F800.000
G1 X29.225 Y10.000 Z-0.600 F800.000
G1 X26.814 Y10.000 Z-0.600 F800.000
G1 X26.814 Y10.000 Z-0.800 F50.000
G1 X26.814 Y10.745 Z-0.800 F800.000
G1 X26.814 Y13.490 Z-0.800 F800.000
G1 X26.803 Y14.322 Z-0.800 F800.000
G1 X26.771 Y14.846 Z-0.800 F800.000
G1 X26.692 Y15.230 Z-0.800 F800.000
G1 X26.620 Y15.389 Z-0.800 F800.000
G1 X26.450 Y15.602 Z-0.800 F800.000
G1 X26.238 Y15.755 Z-0.800 F800.000
G1 X25.982 Y15.853 Z-0.800 F800.000
G1 X25.689 Y15.886 Z-0.800 F800.000
G1 X25.334 Y15.849 Z-0.800 F800.000
G1 X25.032 Y15.747 Z-0.800 F800.000
G1 X24.772 Y15.582 Z-0.800 F800.000
G1 X24.511 Y15.305 Z-0.800 F800.000
G1 X24.327 Y14.995 Z-0.800 F800.000
G1 X24.191 Y14.621 Z-0.800 F800.000
G1 X24.107 Y14.171 Z-0.800 F800.000
G1 X24.082 Y13.698 Z-0.800 F800.000
G1 X24.082 Y10.000 Z-0.800 F800.000
G1 X21.685 Y10.000 Z-0.800 F800.000
G1 X21.685 Y20.429 Z-0.800 F800.000
G1 X24.082 Y20.429 Z-0.800 F800.000
G1 X24.082 Y16.400 Z-0.800 F800.000
G1 X24.488 Y16.836 Z-0.800 F800.000
G1 X24.892 Y17.166 Z-0.800 F800.000
G1 X25.061 Y17.276 Z-0.800 F800.000
G1 X25.234 Y17.373 Z-0.800 F800.000
G1 X25.648 Y17.545 Z-0.800 F800.000
G1 X26.090 Y17.649 Z-0.800 F800.000
G1 X26.331 Y17.677 Z-0.800 F800.000
G1 X26.580 Y17.686 Z-0.800 F800.000
G1 X27.107 Y17.649 Z-0.800 F800.000
G1 X27.555 Y17.547 Z-0.800 F800.000
G1 X27.938 Y17.387 Z-0.800 F800.000
G1 X28.264 Y17.171 Z-0.800 F800.000
G1 X28.552 Y16.890 Z-0.800 F800.000
G1 X28.786 Y16.557 Z-0.800 F800.000
G1 X28.973 Y16.162 Z-0.800 F800.000
G1 X29.113 Y15.697 Z-0.800 F800.000
G1 X29.199 Y15.148 Z-0.800 F800.000
G1 X29.225 Y14.577 Z-0.800 F800.000
G1 X29.225 Y10.000 Z-0.800 F800.000
G1 X26.814 Y10.000 Z-0.800 F800.000
G1 X26.814 Y10.000 Z-1.000 F50.000
G1 X26.814 Y10.745 Z-1.000 F800.000
G1 X26.814 Y13.490 Z-1.000 F800.000
G1 X26.803 Y14.322 Z-1.000 F800.000
G1 X26.771 Y14.846 Z-1.000 F800.000
G1 X26.692 Y15.230 Z-1.000 F800.000
G1 X26.620 Y15.389 Z-1.000 F800.000
G1 X26.450 Y15.602 Z-1.000 F800.000
G1 X26.238 Y15.755 Z-1.000 F800.000
G1 X25.982 Y15.853 Z-1.000 F800.000
G1 X25.689 Y15.886 Z-1.000 F800.000
G1 X25.334 Y15.849 Z-1.000 F800.000
G1 X25.032 Y15.747 Z-1.000 F800.000
G1 X24.772 Y15.582 Z-1.000 F800.000
G1 X24.511 Y15.305 Z-1.000 F800.000
G1 X24.327 Y14.995 Z-1.000 F800.000
G1 X24.191 Y14.621 Z-1.000 F800.000
G1 X24.107 Y14.171 Z-1.000 F800.000
G1 X24.082 Y13.698 Z-1.000 F800.000
G1 X24.082 Y10.000 Z-1.000 F800.000
G1 X21.685 Y10.000 Z-1.000 F800.000
G1 X21.685 Y20.429 Z-1.000 F800.000
G1 X24.082 Y20.429 Z-1.000 F800.000
G1 X24.082 Y16.400 Z-1.000 F800.000
G1 X24.488 Y16.836 Z-1.000 F800.000
G1 X24.892 Y17.166 Z-1.000 F800.000
G1 X25.061 Y17.276 Z-1.000 F800.000
G1 X25.234 Y17.373 Z-1.000 F800.000
G1 X25.648 Y17.545 Z-1.000 F800.000
G1 X26.090 Y17.649 Z-1.000 F800.000
G1 X26.331 Y17.677 Z-1.000 F800.000
G1 X26.580 Y17.686 Z-1.000 F800.000
G1 X27.107 Y17.649 Z-1.000 F800.000
G1 X27.555 Y17.547 Z-1.000 F800.000
G1 X27.938 Y17.387 Z-1.000 F800.000
G1 X28.264 Y17.171 Z-1.000 F800.000
G1 X28.552 Y16.890 Z-1.000 F800.000
G1 X28.786 Y16.557 Z-1.000 F800.000
G1 X28.973 Y16.162 Z-1.000 F800.000
G1 X29.113 Y15.697 Z-1.000 F800.000
G1 X29.199 Y15.148 Z-1.000 F800.000
G1 X29.225 Y14.577 Z-1.000 F800.000
G1 X29.225 Y10.000 Z-1.000 F800.000
G1 X26.814 Y10.000 Z-1.000 F800.000
G0 Z6.000
G0 Z6.000
G0 X39.137 Y13.743
G0 Z4.000
G1 X39.137 Y13.743 Z-0.200 F50.000
G1 X39.101 Y13.093 Z-0.200 F800.000
G1 X38.997 Y12.518 Z-0.200 F800.000
G1 X38.832 Y12.009 Z-0.200 F800.000
G1 X38.610 Y11.557 Z-0.200 F800.000
G1 X38.332 Y11.154 Z-0.200 F800.000
G1 X38.196 Y10.996 Z-0.200 F800.000
G1 X38.049 Y10.846 Z-0.200 F800.000
G1 X37.667 Y10.530 Z-0.200 F800.000
G1 X37.241 Y10.271 Z-0.200 F800.000
G1 X36.763 Y10.066 Z-0.200 F800.000
G1 X36.228 Y9.918 Z-0.200 F800.000
G1 X35.627 Y9.827 Z-0.200 F800.000
G1 X35.332 Y9.807 Z-0.200 F800.000
G1 X35.025 Y9.800 Z-0.200 F800.000
G1 X34.331 Y9.836 Z-0.200 F800.000
G1 X33.718 Y9.940 Z-0.200 F800.000
G1 X33.178 Y10.104 Z-0.200 F800.000
G1 X32.701 Y10.324 Z-0.200 F800.000
G1 X32.280 Y10.598 Z-0.200 F800.000
G1 X32.131 Y10.718 Z-0.200 F800.000
G1 X31.988 Y10.846 Z-0.200 F800.000
G1 X31.657 Y11.213 Z-0.200 F800.000
G1 X31.387 Y11.620 Z-0.200 F800.000
G1 X31.175 Y12.072 Z-0.200 F800.000
G1 X31.021 Y12.575 Z-0.200 F800.000
G1 X30.925 Y13.136 Z-0.200 F800.000
G1 X30.902 Y13.434 Z-0.200 F800.000
G1 X30.894 Y13.743 Z-0.200 F800.000
G1 X30.930 Y14.391 Z-0.200 F800.000
G1 X31.034 Y14.964 Z-0.200 F800.000
G1 X31.199 Y15.472 Z-0.200 F800.000
G1 X31.421 Y15.924 Z-0.200 F800.000
G1 X31.700 Y16.326 Z-0.200 F800.000
G1 X31.838 Y16.487 Z-0.200 F800.000
G1 X31.988 Y16.640 Z-0.200 F800.000
G1 X32.372 Y16.956 Z-0.200 F800.000
G1 X32.801 Y17.215 Z-0.200 F800.000
G1 X33.281 Y17.419 Z-0.200 F800.000
G1 X33.819 Y17.568 Z-0.200 F800.000
G1 X34.422 Y17.659 Z-0.200 F800.000
G1 X34.718 Y17.679 Z-0.200 F800.000
G1 X35.025 Y17.686 Z-0.200 F800.000
G1 X35.718 Y17.649 Z-0.200 F800.000
G1 X36.327 Y17.546 Z-0.200 F800.000
G1 X36.865 Y17.382 Z-0.200 F800.000
G1 X37.340 Y17.162 Z-0.200 F800.000
G1 X37.759 Y16.888 Z-0.200 F800.000
G1 X37.907 Y16.768 Z-0.200 F800.000
G1 X38.049 Y16.640 Z-0.200 F800.000
G1 X38.378 Y16.272 Z-0.200 F800.000
G1 X38.647 Y15.864 Z-0.200 F800.000
G1 X38.858 Y15.411 Z-0.200 F800.000
G1 X39.012 Y14.907 Z-0.200 F800.000
G1 X39.106 Y14.343 Z-0.200 F800.000
G1 X39.129 Y14.049 Z-0.200 F800.000
G1 X39.137 Y13.743 Z-0.200 F800.000
G1 X39.137 Y13.743 Z-0.400 F50.000
G1 X39.101 Y13.093 Z-0.400 F800.000
G1 X38.997 Y12.518 Z-0.400 F800.000
G1 X38.832 Y12.009 Z-0.400 F800.000
G1 X38.610 Y11.557 Z-0.400 F800.000
G1 X38.332 Y11.154 Z-0.400 F800.000
G1 X38.196 Y10.996 Z-0.400 F800.000
G1 X38.049 Y10.846 Z-0.400 F800.000
G1 X37.667 Y10.530 Z-0.400 F800.000
G1 X37.241 Y10.271 Z-0.400 F800.000
G1 X36.763 Y10.066 Z-0.400 F800.000
G1 X36.228 Y9.918 Z-0.400 F800.000
G1 X35.627 Y9.827 Z-0.400 F800.000
G1 X35.332 Y9.807 Z-0.400 F800.000
G1 X35.025 Y9.800 Z-0.400 F800.000
G1 X34.331 Y9.836 Z-0.400 F800.000
G1 X33.718 Y9.940 Z-0.400 F800.000
G1 X33.178 Y10.104 Z-0.400 F800.000
G1 X32.701 Y10.324 Z-0.400 F800.000
G1 X32.280 Y10.598 Z-0.400 F800.000
G1 X32.131 Y10.718 Z-0.400 F800.000
G1 X31.988 Y10.846 Z-0.400 F800.000
G1 X31.657 Y11.213 Z-0.400 F800.000
G1 X31.387 Y11.620 Z-0.400 F800.000
G1 X31.175 Y12.072 Z-0.400 F800.000
G1 X31.021 Y12.575 Z-0.400 F800.000
G1 X30.925 Y13.136 Z-0.400 F800.000
G1 X30.902 Y13.434 Z-0.400 F800.000
G1 X30.894 Y13.743 Z-0.400 F800.000
G1 X30.930 Y14.391 Z-0.400 F800.000
G1 X31.034 Y14.964 Z-0.400 F800.000
G1 X31.199 Y15.472 Z-0.400 F800.000
G1 X31.421 Y15.924 Z-0.400 F800.000
G1 X31.700 Y16.326 Z-0.400 F800.000
G1 X31.838 Y16.487 Z-0.400 F800.000
G1 X31.988 Y16.640 Z-0.400 F800.000
G1 X32.372 Y16.956 Z-0.400 F800.000
G1 X32.801 Y17.215 Z-0.400 F800.000
G1 X33.281 Y17.419 Z-0.400 F800.000
G1 X33.819 Y17.568 Z-0.400 F800.000
G1 X34.422 Y17.659 Z-0.400 F800.000
G1 X34.718 Y17.679 Z-0.400 F800.000
G1 X35.025 Y17.686 Z-0.400 F800.000
G1 X35.718 Y17.649 Z-0.400 F800.000
G1 X36.327 Y17.546 Z-0.400 F800.000
G1 X36.865 Y17.382 Z-0.400 F800.000
G1 X37.340 Y17.162 Z-0.400 F800.000
G1 X37.759 Y16.888 Z-0.400 F800.000
G1 X37.907 Y16.768 Z-0.400 F800.000
G1 X38.049 Y16.640 Z-0.400 F800.000
G1 X38.378 Y16.272 Z-0.400 F800.000
G1 X38.647 Y15.864 Z-0.400 F800.000
G1 X38.858 Y15.411 Z-0.400 F800.000
G1 X39.012 Y14.907 Z-0.400 F800.000
G1 X39.106 Y14.343 Z-0.400 F800.000
G1 X39.129 Y14.049 Z-0.400 F800.000
G1 X39.137 Y13.743 Z-0.400 F800.000
G1 X39.137 Y13.743 Z-0.600 F50.000
G1 X39.101 Y13.093 Z-0.600 F800.000
G1 X38.997 Y12.518 Z-0.600 F800.000
G1 X38.832 Y12.009 Z-0.600 F800.000
G1 X38.610 Y11.557 Z-0.600 F800.000
G1 X38.332 Y11.154 Z-0.600 F800.000
G1 X38.196 Y10.996 Z-0.600 F800.000
G1 X38.049 Y10.846 Z-0.600 F800.000
G1 X37.667 Y10.530 Z-0.600 F800.000
G1 X37.241 Y10.271 Z-0.600 F800.000
G1 X36.763 Y10.066 Z-0.600 F800.000
G1 X36.228 Y9.918 Z-0.600 F800.000
G1 X35.627 Y9.827 Z-0.600 F800.000
G1 X35.332 Y9.807 Z-0.600 F800.000
G1 X35.025 Y9.800 Z-0.600 F800.000
G1 X34.331 Y9.836 Z-0.600 F800.000
G1 X33.718 Y9.940 Z-0.600 F800.000
G1 X33.178 Y10.104 Z-0.600 F800.000
G1 X32.701 Y10.324 Z-0.600 F800.000
G1 X32.280 Y10.598 Z-0.600 F800.000
G1 X32.131 Y10.718 Z-0.600 F800.000
G1 X31.988 Y10.846 Z-0.600 F800.000
G1 X31.657 Y11.213 Z-0.600 F800.000
G1 X31.387 Y11.620 Z-0.600 F800.000
G1 X31.175 Y12.072 Z-0.600 F800.000
G1 X31.021 Y12.575 Z-0.600 F800.000
G1 X30.925 Y13.136 Z-0.600 F800.000
G1 X30.902 Y13.434 Z-0.600 F800.000
G1 X30.894 Y13.743 Z-0.600 F800.000
G1 X30.930 Y14.391 Z-0.600 F800.000
G1 X31.034 Y14.964 Z-0.600 F800.000
G1 X31.199 Y15.472 Z-0.600 F800.000
G1 X31.421 Y15.924 Z-0.600 F800.000
G1 X31.700 Y16.326 Z-0.600 F800.000
G1 X31.838 Y16.487 Z-0.600 F800.000
G1 X31.988 Y16.640 Z-0.600 F800.000
G1 X32.372 Y16.956 Z-0.600 F800.000
G1 X32.801 Y17.215 Z-0.600 F800.000
G1 X33.281 Y17.419 Z-0.600 F800.000
G1 X33.819 Y17.568 Z-0.600 F800.000
G1 X34.422 Y17.659 Z-0.600 F800.000
G1 X34.718 Y17.679 Z-0.600 F800.000
G1 X35.025 Y17.686 Z-0.600 F800.000
G1 X35.718 Y17.649 Z-0.600 F800.000
G1 X36.327 Y17.546 Z-0.600 F800.000
G1 X36.865 Y17.382 Z-0.600 F800.000
G1 X37.340 Y17.162 Z-0.600 F800.000
G1 X37.759 Y16.888 Z-0.600 F800.000
G1 X37.907 Y16.768 Z-0.600 F800.000
G1 X38.049 Y16.640 Z-0.600 F800.000
G1 X38.378 Y16.272 Z-0.600 F800.000
G1 X38.647 Y15.864 Z-0.600 F800.000
G1 X38.858 Y15.411 Z-0.600 F800.000
G1 X39.012 Y14.907 Z-0.600 F800.000
G1 X39.106 Y14.343 Z-0.600 F800.000
G1 X39.129 Y14.049 Z-0.600 F800.000
G1 X39.137 Y13.743 Z-0.600 F800.000
G1 X39.137 Y13.743 Z-0.800 F50.000
G1 X39.101 Y13.093 Z-0.800 F800.000
G1 X38.997 Y12.518 Z-0.800 F800.000
G1 X38.832 Y12.009 Z-0.800 F800.000
G1 X38.610 Y11.557 Z-0.800 F800.000
G1 X38.332 Y11.154 Z-0.800 F800.000
G1 X38.196 Y10.996 Z-0.800 F800.000
G1 X38.049 Y10.846 Z-0.800 F800.000
G1 X37.667 Y10.530 Z-0.800 F800.000
G1 X37.241 Y10.271 Z-0.800 F800.000
G1 X36.763 Y10.066 Z-0.800 F800.000
G1 X36.228 Y9.918 Z-0.800 F800.000
G1 X35.627 Y9.827 Z-0.800 F800.000
G1 X35.332 Y9.807 Z-0.800 F800.000
G1 X35.025 Y9.800 Z-0.800 F800.000
G1 X34.331 Y9.836 Z-0.800 F800.000
G1 X33.718 Y9.940 Z-0.800 F800.000
G1 X33.178 Y10.104 Z-0.800 F800.000
G1 X32.701 Y10.324 Z-0.800 F800.000
G1 X32.280 Y10.598 Z-0.800 F800.000
G1 X32.131 Y10.718 Z-0.800 F800.000
G1 X31.988 Y10.846 Z-0.800 F800.000
G1 X31.657 Y11.213 Z-0.800 F800.000
G1 X31.387 Y11.620 Z-0.800 F800.000
G1 X31.175 Y12.072 Z-0.800 F800.000
G1 X31.021 Y12.575 Z-0.800 F800.000
G1 X30.925 Y13.136 Z-0.800 F800.000
G1 X30.902 Y13.434 Z-0.800 F800.000
G1 X30.894 Y13.743 Z-0.800 F800.000
G1 X30.930 Y14.391 Z-0.800 F800.000
G1 X31.034 Y14.964 Z-0.800 F800.000
G1 X31.199 Y15.472 Z-0.800 F800.000
G1 X31.421 Y15.924 Z-0.800 F800.000
G1 X31.700 Y16.326 Z-0.800 F800.000
G1 X31.838 Y16.487 Z-0.800 F800.000
G1 X31.988 Y16.640 Z-0.800 F800.000
G1 X32.372 Y16.956 Z-0.800 F800.000
G1 X32.801 Y17.215 Z-0.800 F800.000
G1 X33.281 Y17.419 Z-0.800 F800.000
G1 X33.819 Y17.568 Z-0.800 F800.000
G1 X34.422 Y17.659 Z-0.800 F800.000
G1 X34.718 Y17.679 Z-0.800 F800.000
G1 X35.025 Y17.686 Z-0.800 F800.000
G1 X35.718 Y17.649 Z-0.800 F800.000
G1 X36.327 Y17.546 Z-0.800 F800.000
G1 X36.865 Y17.382 Z-0.800 F800.000
G1 X37.340 Y17.162 Z-0.800 F800.000
G1 X37.759 Y16.888 Z-0.800 F800.000
G1 X37.907 Y16.768 Z-0.800 F800.000
G1 X38.049 Y16.640 Z-0.800 F800.000
G1 X38.378 Y16.272 Z-0.800 F800.000
G1 X38.647 Y15.864 Z-0.800 F800.000
G1 X38.858 Y15.411 Z-0.800 F800.000
G1 X39.012 Y14.907 Z-0.800 F800.000
G1 X39.106 Y14.343 Z-0.800 F800.000
G1 X39.129 Y14.049 Z-0.800 F800.000
G1 X39.137 Y13.743 Z-0.800 F800.000
G1 X39.137 Y13.743 Z-1.000 F50.000
G1 X39.101 Y13.093 Z-1.000 F800.000
G1 X38.997 Y12.518 Z-1.000 F800.000
G1 X38.832 Y12.009 Z-1.000 F800.000
G1 X38.610 Y11.557 Z-1.000 F800.000
G1 X38.332 Y11.154 Z-1.000 F800.000
G1 X38.196 Y10.996 Z-1.000 F800.000
G1 X38.049 Y10.846 Z-1.000 F800.000
G1 X37.667 Y10.530 Z-1.000 F800.000
G1 X37.241 Y10.271 Z-1.000 F800.000
G1 X36.763 Y10.066 Z-1.000 F800.000
G1 X36.228 Y9.918 Z-1.000 F800.000
G1 X35.627 Y9.827 Z-1.000 F800.000
G1 X35.332 Y9.807 Z-1.000 F800.000
G1 X35.025 Y9.800 Z-1.000 F800.000
G1 X34.331 Y9.836 Z-1.000 F800.000
G1 X33.718 Y9.940 Z-1.000 F800.000
G1 X33.178 Y10.104 Z-1.000 F800.000
G1 X32.701 Y10.324 Z-1.000 F800.000
G1 X32.280 Y10.598 Z-1.000 F800.000
G1 X32.131 Y10.718 Z-1.000 F800.000
G1 X31.988 Y10.846 Z-1.000 F800.000
G1 X31.657 Y11.213 Z-1.000 F800.000
G1 X31.387 Y11.620 Z-1.000 F800.000
G1 X31.175 Y12.072 Z-1.000 F800.000
G1 X31.021 Y12.575 Z-1.000 F800.000
G1 X30.925 Y13.136 Z-1.000 F800.000
G1 X30.902 Y13.434 Z-1.000 F800.000
G1 X30.894 Y13.743 Z-1.000 F800.000
G1 X30.930 Y14.391 Z-1.000 F800.000
G1 X31.034 Y14.964 Z-1.000 F800.000
G1 X31.199 Y15.472 Z-1.000 F800.000
G1 X31.421 Y15.924 Z-1.000 F800.000
G1 X31.700 Y16.326 Z-1.000 F800.000
G1 X31.838 Y16.487 Z-1.000 F800.000
G1 X31.988 Y16.640 Z-1.000 F800.000
G1 X32.372 Y16.956 Z-1.000 F800.000
G1 X32.801 Y17.215 Z-1.000 F800.000
G1 X33.281 Y17.419 Z-1.000 F800.000
G1 X33.819 Y17.568 Z-1.000 F800.000
G1 X34.422 Y17.659 Z-1.000 F800.000
G1 X34.718 Y17.679 Z-1.000 F800.000
G1 X35.025 Y17.686 Z-1.000 F800.000
G1 X35.718 Y17.649 Z-1.000 F800.000
G1 X36.327 Y17.546 Z-1.000 F800.000
G1 X36.865 Y17.382 Z-1.000 F800.000
G1 X37.340 Y17.162 Z-1.000 F800.000
G1 X37.759 Y16.888 Z-1.000 F800.000
G1 X37.907 Y16.768 Z-1.000 F800.000
G1 X38.049 Y16.640 Z-1.000 F800.000
G1 X38.378 Y16.272 Z-1.000 F800.000
G1 X38.647 Y15.864 Z-1.000 F800.000
G1 X38.858 Y15.411 Z-1.000 F800.000
G1 X39.012 Y14.907 Z-1.000 F800.000
G1 X39.106 Y14.343 Z-1.000 F800.000
G1 X39.129 Y14.049 Z-1.000 F800.000
G1 X39.137 Y13.743 Z-1.000 F800.000
G0 Z6.000
G0 Z6.000
G0 X33.392 Y13.743
G0 Z4.000
G1 X33.392 Y13.743 Z-0.200 F50.000
G1 X33.428 Y13.150 Z-0.200 F800.000
G1 X33.527 Y12.676 Z-0.200 F800.000
G1 X33.678 Y12.301 Z-0.200 F800.000
G1 X33.810 Y12.088 Z-0.200 F800.000
G1 X34.030 Y11.848 Z-0.200 F800.000
G1 X34.285 Y11.676 Z-0.200 F800.000
G1 X34.581 Y11.566 Z-0.200 F800.000
G1 X35.025 Y11.514 Z-0.200 F800.000
G1 X35.397 Y11.551 Z-0.200 F800.000
G1 X35.706 Y11.652 Z-0.200 F800.000
G1 X35.966 Y11.814 Z-0.200 F800.000
G1 X36.224 Y12.088 Z-0.200 F800.000
G1 X36.399 Y12.392 Z-0.200 F800.000
G1 X36.531 Y12.770 Z-0.200 F800.000
G1 X36.613 Y13.235 Z-0.200 F800.000
G1 X36.639 Y13.743 Z-0.200 F800.000
G1 X36.603 Y14.338 Z-0.200 F800.000
G1 X36.504 Y14.813 Z-0.200 F800.000
G1 X36.353 Y15.188 Z-0.200 F800.000
G1 X36.224 Y15.397 Z-0.200 F800.000
G1 X36.004 Y15.639 Z-0.200 F800.000
G1 X35.751 Y15.811 Z-0.200 F800.000
G1 X35.459 Y15.921 Z-0.200 F800.000
G1 X35.025 Y15.971 Z-0.200 F800.000
G1 X34.648 Y15.935 Z-0.200 F800.000
G1 X34.335 Y15.833 Z-0.200 F800.000
G1 X34.072 Y15.672 Z-0.200 F800.000
G1 X33.810 Y15.397 Z-0.200 F800.000
G1 X33.634 Y15.094 Z-0.200 F800.000
G1 X33.502 Y14.718 Z-0.200 F800.000
G1 X33.418 Y14.255 Z-0.200 F800.000
G1 X33.392 Y13.743 Z-0.200 F800.000
G1 X33.392 Y13.743 Z-0.400 F50.000
G1 X33.428 Y13.150 Z-0.400 F800.000
G1 X33.527 Y12.676 Z-0.400 F800.000
G1 X33.678 Y12.301 Z-0.400 F800.000
G1 X33.810 Y12.088 Z-0.400 F800.000
G1 X34.030 Y11.848 Z-0.400 F800.000
G1 X34.285 Y11.676 Z-0.400 F800.000
G1 X34.581 Y11.566 Z-0.400 F800.000
G1 X35.025 Y11.514 Z-0.400 F800.000
G1 X35.397 Y11.551 Z-0.400 F800.000
G1 X35.706 Y11.652 Z-0.400 F800.000
G1 X35.966 Y11.814 Z-0.400 F800.000
G1 X36.224 Y12.088 Z-0.400 F800.000
G1 X36.399 Y12.392 Z-0.400 F800.000
G1 X36.531 Y12.770 Z-0.400 F800.000
G1 X36.613 Y13.235 Z-0.400 F800.000
G1 X36.639 Y13.743 Z-0.400 F800.000
G1 X36.603 Y14.338 Z-0.400 F800.000
G1 X36.504 Y14.813 Z-0.400 F800.000
G1 X36.353 Y15.188 Z-0.400 F800.000
G1 X36.224 Y15.397 Z-0.400 F800.000
G1 X36.004 Y15.639 Z-0.400 F800.000
G1 X35.751 Y15.811 Z-0.400 F800.000
G1 X35.459 Y15.921 Z-0.400 F800.000
G1 X35.025 Y15.971 Z-0.400 F800.000
G1 X34.648 Y15.935 Z-0.400 F800.000
G1 X34.335 Y15.833 Z-0.400 F800.000
G1 X34.072 Y15.672 Z-0.400 F800.000
G1 X33.810 Y15.397 Z-0.400 F800.000
G1 X33.634 Y15.094 Z-0.400 F800.000
G1 X33.502 Y14.718 Z-0.400 F800.000
G1 X33.418 Y14.255 Z-0.400 F800.000
G1 X33.392 Y13.743 Z-0.400 F800.000
G1 X33.392 Y13.743 Z-0.600 F50.000
G1 X33.428 Y13.150 Z-0.600 F800.000
G1 X33.527 Y12.676 Z-0.600 F800.000
G1 X33.678 Y12.301 Z-0.600 F800.000
G1 X33.810 Y12.088 Z-0.600 F800.000
G1 X34.030 Y11.848 Z-0.600 F800.000
G1 X34.285 Y11.676 Z-0.600 F800.000
G1 X34.581 Y11.566 Z-0.600 F800.000
G1 X35.025 Y11.514 Z-0.600 F800.000
G1 X35.397 Y11.551 Z-0.600 F800.000
G1 X35.706 Y11.652 Z-0.600 F800.000
G1 X35.966 Y11.814 Z-0.600 F800.000
G1 X36.224 Y12.088 Z-0.600 F800.000
G1 X36.399 Y12.392 Z-0.600 F800.000
G1 X36.531 Y12.770 Z-0.600 F800.000
G1 X36.613 Y13.235 Z-0.600 F800.000
G1 X36.639 Y13.743 Z-0.600 F800.000
G1 X36.603 Y14.338 Z-0.600 F800.000
G1 X36.504 Y14.813 Z-0.600 F800.000
G1 X36.353 Y15.188 Z-0.600 F800.000
G1 X36.224 Y15.397 Z-0.600 F800.000
G1 X36.004 Y15.639 Z-0.600 F800.000
G1 X35.751 Y15.811 Z-0.600 F800.000
G1 X35.459 Y15.921 Z-0.600 F800.000
G1 X35.025 Y15.971 Z-0.600 F800.000
G1 X34.648 Y15.935 Z-0.600 F800.000
G1 X34.335 Y15.833 Z-0.600 F800.000
G1 X34.072 Y15.672 Z-0.600 F800.000
G1 X33.810 Y15.397 Z-0.600 F800.000
G1 X33.634 Y15.094 Z-0.600 F800.000
G1 X33.502 Y14.718 Z-0.600 F800.000
G1 X33.418 Y14.255 Z-0.600 F800.000
G1 X33.392 Y13.743 Z-0.600 F800.000
G1 X33.392 Y13.743 Z-0.800 F50.000
G1 X33.428 Y13.150 Z-0.800 F800.000
G1 X33.527 Y12.676 Z-0.800 F800.000
G1 X33.678 Y12.301 Z-0.800 F800.000
G1 X33.810 Y12.088 Z-0.800 F800.000
G1 X34.030 Y11.848 Z-0.800 F800.000
G1 X34.285 Y11.676 Z-0.800 F800.000
G1 X34.581 Y11.566 Z-0.800 F800.000
G1 X35.025 Y11.514 Z-0.800 F800.000
G1 X35.397 Y11.551 Z-0.800 F800.000
G1 X35.706 Y11.652 Z-0.800 F800.000
G1 X35.966 Y11.814 Z-0.800 F800.000
G1 X36.224 Y12.088 Z-0.800 F800.000
G1 X36.399 Y12.392 Z-0.800 F800.000
G1 X36.531 Y12.770 Z-0.800 F800.000
G1 X36.613 Y13.235 Z-0.800 F800.000
G1 X36.639 Y13.743 Z-0.800 F800.000
G1 X36.603 Y14.338 Z-0.800 F800.000
G1 X36.504 Y14.813 Z-0.800 F800.000
G1 X36.353 Y15.188 Z-0.800 F800.000
G1 X36.224 Y15.397 Z-0.800 F800.000
G1 X36.004 Y15.639 Z-0.800 F800.000
G1 X35.751 Y15.811 Z-0.800 F800.000
G1 X35.459 Y15.921 Z-0.800 F800.000
G1 X35.025 Y15.971 Z-0.800 F800.000
G1 X34.648 Y15.935 Z-0.800 F800.000
G1 X34.335 Y15.833 Z-0.800 F800.000
G1 X34.072 Y15.672 Z-0.800 F800.000
G1 X33.810 Y15.397 Z-0.800 F800.000
G1 X33.634 Y15.094 Z-0.800 F800.000
G1 X33.502 Y14.718 Z-0.800 F800.000
G1 X33.418 Y14.255 Z-0.800 F800.000
G1 X33.392 Y13.743 Z-0.800 F800.000
G1 X33.392 Y13.743 Z-1.000 F50.000
G1 X33.428 Y13.150 Z-1.000 F800.000
G1 X33.527 Y12.676 Z-1.000 F800.000
G1 X33.678 Y12.301 Z-1.000 F800.000
G1 X33.810 Y12.088 Z-1.000 F800.000
G1 X34.030 Y11.848 Z-1.000 F800.000
G1 X34.285 Y11.676 Z-1.000 F800.000
G1 X34.581 Y11.566 Z-1.000 F800.000
G1 X35.025 Y11.514 Z-1.000 F800.000
G1 X35.397 Y11.551 Z-1.000 F800.000
G1 X35.706 Y11.652 Z-1.000 F800.000
G1 X35.966 Y11.814 Z-1.000 F800.000
G1 X36.224 Y12.088 Z-1.000 F800.000
G1 X36.399 Y12.392 Z-1.000 F800.000
G1 X36.531 Y12.770 Z-1.000 F800.000
G1 X36.613 Y13.235 Z-1.000 F800.000
G1 X36.639 Y13.743 Z-1.000 F800.000
G1 X36.603 Y14.338 Z-1.000 F800.000
G1 X36.504 Y14.813 Z-1.000 F800.000
G1 X36.353 Y15.188 Z-1.000 F800.000
G1 X36.224 Y15.397 Z-1.000 F800.000
G1 X36.004 Y15.639 Z-1.000 F800.000
G1 X35.751 Y15.811 Z-1.000 F800.000
G1 X35.459 Y15.921 Z-1.000 F800.000
G1 X35.025 Y15.971 Z-1.000 F800.000
G1 X34.648 Y15.935 Z-1.000 F800.000
G1 X34.335 Y15.833 Z-1.000 F800.000
G1 X34.072 Y15.672 Z-1.000 F800.000
G1 X33.810 Y15.397 Z-1.000 F800.000
G1 X33.634 Y15.094 Z-1.000 F800.000
G1 X33.502 Y14.718 Z-1.000 F800.000
G1 X33.418 Y14.255 Z-1.000 F800.000
G1 X33.392 Y13.743 Z-1.000 F800.000
G0 Z6.000
G0 Z6.000
G0 X44.313 Y12.415
G0 Z4.000
G1 X44.313 Y12.415 Z-0.200 F50.000
G1 X46.028 Y17.514 Z-0.200 F800.000
G1 X48.425 Y17.514 Z-0.200 F800.000
G1 X45.271 Y9.279 Z-0.200 F800.000
G1 X44.976 Y8.603 Z-0.200 F800.000
G1 X44.677 Y8.094 Z-0.200 F800.000
G1 X44.378 Y7.723 Z-0.200 F800.000
G1 X44.163 Y7.528 Z-0.200 F800.000
G1 X43.839 Y7.319 Z-0.200 F800.000
G1 X43.465 Y7.165 Z-0.200 F800.000
G1 X43.033 Y7.066 Z-0.200 F800.000
G1 X42.492 Y7.029 Z-0.200 F800.000
G1 X41.106 Y7.029 Z-0.200 F800.000
G1 X41.106 Y8.600 Z-0.200 F800.000
G1 X41.856 Y8.600 Z-0.200 F800.000
G1 X42.312 Y8.635 Z-0.200 F800.000
G1 X42.617 Y8.725 Z-0.200 F800.000
G1 X42.684 Y8.759 Z-0.200 F800.000
G1 X42.743 Y8.796 Z-0.200 F800.000
G1 X42.915 Y8.962 Z-0.200 F800.000
G1 X43.067 Y9.213 Z-0.200 F800.000
G1 X43.124 Y9.349 Z-0.200 F800.000
G1 X43.175 Y9.500 Z-0.200 F800.000
G1 X43.242 Y9.708 Z-0.200 F800.000
G1 X39.900 Y17.514 Z-0.200 F800.000
G1 X42.298 Y17.514 Z-0.200 F800.000
G1 X44.313 Y12.415 Z-0.200 F800.000
G1 X44.313 Y12.415 Z-0.400 F50.000
G1 X46.028 Y17.514 Z-0.400 F800.000
G1 X48.425 Y17.514 Z-0.400 F800.000
G1 X45.271 Y9.279 Z-0.400 F800.000
G1 X44.976 Y8.603 Z-0.400 F800.000
G1 X44.677 Y8.094 Z-0.400 F800.000
G1 X44.378 Y7.723 Z-0.400 F800.000
G1 X44.163 Y7.528 Z-0.400 F800.000
G1 X43.839 Y7.319 Z-0.400 F800.000
G1 X43.465 Y7.165 Z-0.400 F800.000
G1 X43.033 Y7.066 Z-0.400 F800.000
G1 X42.492 Y7.029 Z-0.400 F800.000
G1 X41.106 Y7.029 Z-0.400 F800.000
G1 X41.106 Y8.600 Z-0.400 F800.000
G1 X41.856 Y8.600 Z-0.400 F800.000
G1 X42.312 Y8.635 Z-0.400 F800.000
G1 X42.617 Y8.725 Z-0.400 F800.000
G1 X42.684 Y8.759 Z-0.400 F800.000
G1 X42.743 Y8.796 Z-0.400 F800.000
G1 X42.915 Y8.962 Z-0.400 F800.000
G1 X43.067 Y9.213 Z-0.400 F800.000
G1 X43.124 Y9.349 Z-0.400 F800.000
G1 X43.175 Y9.500 Z-0.400 F800.000
G1 X43.242 Y9.708 Z-0.400 F800.000
G1 X39.900 Y17.514 Z-0.400 F800.000
G1 X42.298 Y17.514 Z-0.400 F800.000
G1 X44.313 Y12.415 Z-0.400 F800.000
G1 X44.313 Y12.415 Z-0.600 F50.000
G1 X46.028 Y17.514 Z-0.600 F800.000
G1 X48.425 Y17.514 Z-0.600 F800.000
G1 X45.271 Y9.279 Z-0.600 F800.000
G1 X44.976 Y8.603 Z-0.600 F800.000
G1 X44.677 Y8.094 Z-0.600 F800.000
G1 X44.378 Y7.723 Z-0.600 F800.000
G1 X44.163 Y7.528 Z-0.600 F800.000
G1 X43.839 Y7.319 Z-0.600 F800.000
G1 X43.465 Y7.165 Z-0.600 F800.000
G1 X43.033 Y7.066 Z-0.600 F800.000
G1 X42.492 Y7.029 Z-0.600 F800.000
G1 X41.106 Y7.029 Z-0.600 F800.000
G1 X41.106 Y8.600 Z-0.600 F800.000
G1 X41.856 Y8.600 Z-0.600 F800.000
G1 X42.312 Y8.635 Z-0.600 F800.000
G1 X42.617 Y8.725 Z-0.600 F800.000
G1 X42.684 Y8.759 Z-0.600 F800.000
G1 X42.743 Y8.796 Z-0.600 F800.000
G1 X42.915 Y8.962 Z-0.600 F800.000
G1 X43.067 Y9.213 Z-0.600 F800.000
G1 X43.124 Y9.349 Z-0.600 F800.000
G1 X43.175 Y9.500 Z-0.600 F800.000
G1 X43.242 Y9.708 Z-0.600 F800.000
G1 X39.900 Y17.514 Z-0.600 F800.000
G1 X42.298 Y17.514 Z-0.600 F800.000
G1 X44.313 Y12.415 Z-0.600 F800.000
G1 X44.313 Y12.415 Z-0.800 F50.000
G1 X46.028 Y17.514 Z-0.800 F800.000
G1 X48.425 Y17.514 Z-0.800 F800.000
G1 X45.271 Y9.279 Z-0.800 F800.000
G1 X44.976 Y8.603 Z-0.800 F800.000
G1 X44.677 Y8.094 Z-0.800 F800.000
G1 X44.378 Y7.723 Z-0.800 F800.000
G1 X44.163 Y7.528 Z-0.800 F800.000
G1 X43.839 Y7.319 Z-0.800 F800.000
G1 X43.465 Y7.165 Z-0.800 F800.000
G1 X43.033 Y7.066 Z-0.800 F800.000
G1 X42.492 Y7.029 Z-0.800 F800.000
G1 X41.106 Y7.029 Z-0.800 F800.000
G1 X41.106 Y8.600 Z-0.800 F800.000
G1 X41.856 Y8.600 Z-0.800 F800.000
G1 X42.312 Y8.635 Z-0.800 F800.000
G1 X42.617 Y8.725 Z-0.800 F800.000
G1 X42.684 Y8.759 Z-0.800 F800.000
G1 X42.743 Y8.796 Z-0.800 F800.000
G1 X42.915 Y8.962 Z-0.800 F800.000
G1 X43.067 Y9.213 Z-0.800 F800.000
G1 X43.124 Y9.349 Z-0.800 F800.000
G1 X43.175 Y9.500 Z-0.800 F800.000
G1 X43.242 Y9.708 Z-0.800 F800.000
G1 X39.900 Y17.514 Z-0.800 F800.000
G1 X42.298 Y17.514 Z-0.800 F800.000
G1 X44.313 Y12.415 Z-0.800 F800.000
G1 X44.313 Y12.415 Z-1.000 F50.000
G1 X46.028 Y17.514 Z-1.000 F800.000
G1 X48.425 Y17.514 Z-1.000 F800.000
G1 X45.271 Y9.279 Z-1.000 F800.000
G1 X44.976 Y8.603 Z-1.000 F800.000
G1 X44.677 Y8.094 Z-1.000 F800.000
G1 X44.378 Y7.723 Z-1.000 F800.000
G1 X44.163 Y7.528 Z-1.000 F800.000
G1 X43.839 Y7.319 Z-1.000 F800.000
G1 X43.465 Y7.165 Z-1.000 F800.000
G1 X43.033 Y7.066 Z-1.000 F800.000
G1 X42.492 Y7.029 Z-1.000 F800.000
G1 X41.106 Y7.029 Z-1.000 F800.000
G1 X41.106 Y8.600 Z-1.000 F800.000
G1 X41.856 Y8.600 Z-1.000 F800.000
G1 X42.312 Y8.635 Z-1.000 F800.000
G1 X42.617 Y8.725 Z-1.000 F800.000
G1 X42.684 Y8.759 Z-1.000 F800.000
G1 X42.743 Y8.796 Z-1.000 F800.000
G1 X42.915 Y8.962 Z-1.000 F800.000
G1 X43.067 Y9.213 Z-1.000 F800.000
G1 X43.124 Y9.349 Z-1.000 F800.000
G1 X43.175 Y9.500 Z-1.000 F800.000
G1 X43.242 Y9.708 Z-1.000 F800.000
G1 X39.900 Y17.514 Z-1.000 F800.000
G1 X42.298 Y17.514 Z-1.000 F800.000
G1 X44.313 Y12.415 Z-1.000 F800.000
G0 Z6.000
G0 Z6.000
G0 X53.008 Y16.151
G0 Z4.000
G1 X53.008 Y16.151 Z-0.200 F50.000
G1 X52.667 Y13.343 Z-0.200 F800.000
G1 X50.939 Y13.343 Z-0.200 F800.000
G1 X50.598 Y16.151 Z-0.200 F800.000
G1 X50.598 Y20.000 Z-0.200 F800.000
G1 X53.008 Y20.000 Z-0.200 F800.000
G1 X53.008 Y16.151 Z-0.200 F800.000
G1 X53.008 Y16.151 Z-0.400 F50.000
G1 X52.667 Y13.343 Z-0.400 F800.000
G1 X50.939 Y13.343 Z-0.400 F800.000
G1 X50.598 Y16.151 Z-0.400 F800.000
G1 X50.598 Y20.000 Z-0.400 F800.000
G1 X53.008 Y20.000 Z-0.400 F800.000
G1 X53.008 Y16.151 Z-0.400 F800.000
G1 X53.008 Y16.151 Z-0.600 F50.000
G1 X52.667 Y13.343 Z-0.600 F800.000
G1 X50.939 Y13.343 Z-0.600 F800.000
G1 X50.598 Y16.151 Z-0.600 F800.000
G1 X50.598 Y20.000 Z-0.600 F800.000
G1 X53.008 Y20.000 Z-0.600 F800.000
G1 X53.008 Y16.151 Z-0.600 F800.000
G1 X53.008 Y16.151 Z-0.800 F50.000
G1 X52.667 Y13.343 Z-0.800 F800.000
G1 X50.939 Y13.343 Z-0.800 F800.000
G1 X50.598 Y16.151 Z-0.800 F800.000
G1 X50.598 Y20.000 Z-0.800 F800.000
G1 X53.008 Y20.000 Z-0.800 F800.000
G1 X53.008 Y16.151 Z-0.800 F800.000
G1 X53.008 Y16.151 Z-1.000 F50.000
G1 X52.667 Y13.343 Z-1.000 F800.000
G1 X50.939 Y13.343 Z-1.000 F800.000
G1 X50.598 Y16.151 Z-1.000 F800.000
G1 X50.598 Y20.000 Z-1.000 F800.000
G1 X53.008 Y20.000 Z-1.000 F800.000
G1 X53.008 Y16.151 Z-1.000 F800.000
G0 Z6.000
G0 Z6.000
G0 X53.008 Y10.000
G0 Z4.000
G1 X53.008 Y10.000 Z-0.200 F50.000
G1 X50.598 Y10.000 Z-0.200 F800.000
G1 X50.598 Y12.371 Z-0.200 F800.000
G1 X53.008 Y12.371 Z-0.200 F800.000
G1 X53.008 Y10.000 Z-0.200 F800.000
G1 X53.008 Y10.000 Z-0.400 F50.000
G1 X50.598 Y10.000 Z-0.400 F800.000
G1 X50.598 Y12.371 Z-0.400 F800.000
G1 X53.008 Y12.371 Z-0.400 F800.000
G1 X53.008 Y10.000 Z-0.400 F800.000
G1 X53.008 Y10.000 Z-0.600 F50.000
G1 X50.598 Y10.000 Z-0.600 F800.000
G1 X50.598 Y12.371 Z-0.600 F800.000
G1 X53.008 Y12.371 Z-0.600 F800.000
G1 X53.008 Y10.000 Z-0.600 F800.000
G1 X53.008 Y10.000 Z-0.800 F50.000
G1 X50.598 Y10.000 Z-0.800 F800.000
G1 X50.598 Y12.371 Z-0.800 F800.000
G1 X53.008 Y12.371 Z-0.800 F800.000
G1 X53.008 Y10.000 Z-0.800 F800.000
G1 X53.008 Y10.000 Z-1.000 F50.000
G1 X50.598 Y10.000 Z-1.000 F800.000
G1 X50.598 Y12.371 Z-1.000 F800.000
G1 X53.008 Y12.371 Z-1.000 F800.000
G1 X53.008 Y10.000 Z-1.000 F800.000
G0 Z6.000
G0 Z6.000
G0 Z6.000
G0 X7.796 Y4.472
G0 Z4.000
G1 X7.796 Y4.472 Z-0.200 F50.000
G1 X54.944 Y4.472 Z-0.200 F800.000
G3 X57.389 Y6.917 Z-0.200 I0.000 J2.445 K0.000 F800.000
G1 X57.389 Y21.763 Z-0.200 F800.000
G3 X54.541 Y24.611 Z-0.200 I-2.848 J0.000 K0.000 F800.000
G1 X8.199 Y24.611 Z-0.200 F800.000
G3 X5.351 Y21.763 Z-0.200 I-0.000 J-2.848 K0.000 F800.000
G1 X5.351 Y6.917 Z-0.200 F800.000
G3 X7.796 Y4.472 Z-0.200 I2.445 J0.000 K0.000 F800.000
G1 X7.796 Y4.472 Z-0.400 F50.000
G1 X54.944 Y4.472 Z-0.400 F800.000
G3 X57.389 Y6.917 Z-0.400 I0.000 J2.445 K0.000 F800.000
G1 X57.389 Y21.763 Z-0.400 F800.000
G3 X54.541 Y24.611 Z-0.400 I-2.848 J0.000 K0.000 F800.000
G1 X8.199 Y24.611 Z-0.400 F800.000
G3 X5.351 Y21.763 Z-0.400 I-0.000 J-2.848 K0.000 F800.000
G1 X5.351 Y6.917 Z-0.400 F800.000
G3 X7.796 Y4.472 Z-0.400 I2.445 J0.000 K0.000 F800.000
G1 X7.796 Y4.472 Z-0.600 F50.000
G1 X54.944 Y4.472 Z-0.600 F800.000
G3 X57.389 Y6.917 Z-0.600 I0.000 J2.445 K0.000 F800.000
G1 X57.389 Y21.763 Z-0.600 F800.000
G3 X54.541 Y24.611 Z-0.600 I-2.848 J0.000 K0.000 F800.000
G1 X8.199 Y24.611 Z-0.600 F800.000
G3 X5.351 Y21.763 Z-0.600 I-0.000 J-2.848 K0.000 F800.000
G1 X5.351 Y6.917 Z-0.600 F800.000
G3 X7.796 Y4.472 Z-0.600 I2.445 J0.000 K0.000 F800.000
G1 X7.796 Y4.472 Z-0.800 F50.000
G1 X54.944 Y4.472 Z-0.800 F800.000
G3 X57.389 Y6.917 Z-0.800 I0.000 J2.445 K0.000 F800.000
G1 X57.389 Y21.763 Z-0.800 F800.000
G3 X54.541 Y24.611 Z-0.800 I-2.848 J0.000 K0.000 F800.000
G1 X8.199 Y24.611 Z-0.800 F800.000
G3 X5.351 Y21.763 Z-0.800 I-0.000 J-2.848 K0.000 F800.000
G1 X5.351 Y6.917 Z-0.800 F800.000
G3 X7.796 Y4.472 Z-0.800 I2.445 J0.000 K0.000 F800.000
G1 X7.796 Y4.472 Z-1.000 F50.000
G1 X54.944 Y4.472 Z-1.000 F800.000
G3 X57.389 Y6.917 Z-1.000 I0.000 J2.445 K0.000 F800.000
G1 X57.389 Y21.763 Z-1.000 F800.000
G3 X54.541 Y24.611 Z-1.000 I-2.848 J0.000 K0.000 F800.000
G1 X8.199 Y24.611 Z-1.000 F800.000
G3 X5.351 Y21.763 Z-1.000 I-0.000 J-2.848 K0.000 F800.000
G1 X5.351 Y6.917 Z-1.000 F800.000
G3 X7.796 Y4.472 Z-1.000 I2.445 J0.000 K0.000 F800.000
G0 Z6.000
(Finish operation: Engrave)
(Begin postamble)
M5
G17 G90
M2
